X:1
T:Title
%%score { ( 1 2 ) | ( 3 4 ) }
L:1/8
Q:1/4=100
M:3/4
K:F
V:1 treble nm="Grand Piano"
V:2 treble 
V:3 bass 
V:4 bass 
V:1
 z2 F2 G2 | A4 c2 | B2 c2 B2 | A6 | c2 A2 B2 | G4 z2 | z2 A2 G2 | [EG]6 | z2 F2 G2 | A4 c2 | %10
 B2 c2 B2 | A6 | [Ac]2 [G^c]2 [^Fd]2 | [GB]4 [DG]2 | [CF]2 [FA]2 [B,EG]2 | [A,F]6 |] %16
V:2
 C4 z2 | x6 | x6 | x6 | x6 | z2 C2 [EG]2 | F4 z2 | z2 z2 B,2 | C4 z2 | x6 | x6 | x6 | x6 | x6 | %14
 x6 | x6 |] %16
V:3
 [F,A,]4 [F,B,E]2 | [F,CF]4 [F,A,F]2 | [F,DF]4 [F,DF]2 | [F,CF]6 | [A,E]2 z2 z2 | ^C2 z2 z2 | %6
 [F,A,]2 [D,C]2 [G,=B,F]2 | C4 z2 | [F,A,]4 [F,B,E]2 | [F,CF]4 [F,_EF]2 | [F,DF]4 [F,^CF]2 | %11
 [F,CF]6 | A,4 z2 | [G,B,]4 [B,,B,]2 | A,2 z2 z2 | F,6 |] %16
V:4
 x6 | x6 | x6 | x6 | C2- [^F,C_E]2 [G,B,D]2 | [E,B,]4 [C,B,]2 | x6 | C,6 | x6 | x6 | x6 | x6 | %12
 F,2 E,2 [D,A,]2 | x6 | C,2- [C,C]2 C,2 | x6 |] %16

